icons/desktop/20/word-spacing-20.svg

<svg width="20" height="20" viewBox="0 0 20 20" fill="none" xmlns="http://www.w3.org/2000/svg">
<g clip-path="url(#clip0_8069_32752)">
<path fill-rule="evenodd" clip-rule="evenodd" d="M4.49853 5.75C5.10536 5.75013 5.65312 6.11208 5.8911 6.66992L8.92724 13.7832C9.17401 14.36 8.74835 14.9997 8.11767 15C7.76467 15 7.44512 14.7898 7.30712 14.4668L6.46825 12.5H2.53075L1.69091 14.4668C1.55293 14.7898 1.23429 14.9999 0.881339 15C0.251455 15 -0.174914 14.3601 0.0707918 13.7832L3.10692 6.66992C3.34471 6.11244 3.89219 5.75067 4.49853 5.75ZM3.27782 10.75H5.72216L4.50048 7.88867L3.27782 10.75Z" fill="black"/>
<path d="M11.0317 7.60938C11.3897 7.25156 12.0003 7.50499 12.0005 8.00977V9H17.0005V8.00977C17.0007 7.50495 17.6123 7.25244 17.9692 7.60938L19.8345 9.47363C20.0565 9.69463 20.0565 10.0544 19.8345 10.2764L17.9692 12.1406C17.6113 12.4986 17.0006 12.2451 17.0005 11.7402V10.75H12.0005V11.7402C12.0003 12.2451 11.3887 12.4975 11.0317 12.1406L9.1665 10.2764C8.9445 10.0554 8.9445 9.69563 9.1665 9.47363L11.0317 7.60938Z" fill="black"/>
</g>
<defs>
<clipPath id="clip0_8069_32752">
<rect width="20" height="20" fill="white"/>
</clipPath>
</defs>
</svg>

<!-- This Source Code Form is subject to the terms of the Mozilla Public
   - License, v. 2.0. If a copy of the MPL was not distributed with this
   - file, You can obtain one at http://mozilla.org/MPL/2.0/. -->
<svg xmlns="http://www.w3.org/2000/svg" width="20" height="20" fill="context-fill" fill-opacity="context-fill-opacity" viewBox="0 0 20 20">
    <g clip-path="url(#clip0_8069_32752)">
        <path fill-rule="evenodd" d="M4.499 5.75c.606 0 1.154.362 1.392.92l3.036 7.113A.875.875 0 0 1 8.117 15a.88.88 0 0 1-.81-.533L6.468 12.5H2.531l-.84 1.967a.88.88 0 0 1-1.62-.684L3.107 6.67c.238-.558.785-.92 1.392-.92m-1.221 5h2.444L4.5 7.889z" clip-rule="evenodd" />
        <path d="M11.032 7.61a.567.567 0 0 1 .969.4V9h5v-.99c0-.505.611-.758.968-.4l1.865 1.864a.567.567 0 0 1 0 .802l-1.865 1.865a.567.567 0 0 1-.969-.4v-.991h-5v.99a.568.568 0 0 1-.968.4l-1.866-1.864a.567.567 0 0 1 0-.802z" />
    </g>
</svg>
